X:31
M:6/8
L:1/8
K:D
(Ad).d dfd | {f}e2d d2A | (Ad).d dfd | ege d3::Aaa a2A | Bec cdA |
faf (ag).f | (fe).e e2e | fac' (d'c').b | (ba).a a2e | faf agf | fee e2A |]

